svg/fluentui-system-icons/ic_fluent_voicemail_subtract_16_filled.svg

<svg width="16" height="16" viewBox="0 0 16 16" fill="none" xmlns="http://www.w3.org/2000/svg">
<path d="M4 5.75C4 5.33579 4.33579 5 4.75 5C5.16421 5 5.5 5.33579 5.5 5.75C5.5 6.16421 5.16421 6.5 4.75 6.5C4.33579 6.5 4 6.16421 4 5.75ZM9.25 4C9.95207 4 10.5576 4.41343 10.8364 5.01012C11.6119 5.0569 12.344 5.26439 13 5.59971V2.5C13 1.67157 12.3284 1 11.5 1H2.5C1.67157 1 1 1.67157 1 2.5V9C1 9.82843 1.67157 10.5 2.5 10.5H5C5 8.56699 5.99719 6.8669 7.50521 5.88607C7.50176 5.84117 7.5 5.79579 7.5 5.75C7.5 5.4816 7.56042 5.22731 7.66841 5H6.33159C6.43958 5.22731 6.5 5.4816 6.5 5.75C6.5 6.7165 5.7165 7.5 4.75 7.5C3.7835 7.5 3 6.7165 3 5.75C3 4.7835 3.7835 4 4.75 4H9.25ZM8.63162 5.32548C8.9363 5.21545 9.25348 5.13157 9.58044 5.07653C9.48075 5.02752 9.36859 5 9.25 5C8.99337 5 8.76684 5.1289 8.63162 5.32548ZM15 10.5C15 12.9853 12.9853 15 10.5 15C8.01472 15 6 12.9853 6 10.5C6 8.01472 8.01472 6 10.5 6C12.9853 6 15 8.01472 15 10.5ZM13 10.5C13 10.2239 12.7761 10 12.5 10H8.5C8.22386 10 8 10.2239 8 10.5C8 10.7761 8.22386 11 8.5 11H12.5C12.7761 11 13 10.7761 13 10.5Z" fill="#212121"/>
</svg>

<svg xmlns="http://www.w3.org/2000/svg" width="16" height="16"><path d="M4 5.75a.75.75 0 1 1 1.5 0 .75.75 0 0 1-1.5 0ZM9.25 4a1.75 1.75 0 0 1 1.586 1.01A5.468 5.468 0 0 1 13 5.6V2.5A1.5 1.5 0 0 0 11.5 1h-9A1.5 1.5 0 0 0 1 2.5V9a1.5 1.5 0 0 0 1.5 1.5H5c0-1.933.997-3.633 2.505-4.614A1.776 1.776 0 0 1 7.668 5H6.332A1.75 1.75 0 1 1 4.75 4h4.5Zm-.618 1.325c.304-.11.621-.193.948-.248a.747.747 0 0 0-.948.248ZM15 10.5a4.5 4.5 0 1 1-9 0 4.5 4.5 0 0 1 9 0Zm-2 0a.5.5 0 0 0-.5-.5h-4a.5.5 0 0 0 0 1h4a.5.5 0 0 0 .5-.5Z"/></svg>
